src/media/tweet-icon.svg

<svg viewBox="0 0 106 106" xmlns="http://www.w3.org/2000/svg" xml:space="preserve" style="fill-rule:evenodd;clip-rule:evenodd;stroke-linejoin:round;stroke-miterlimit:2">
  <path d="M114 14.156C114 6.338 107.662 0 99.844 0H14.156C6.338 0 0 6.338 0 14.156v85.688C0 107.662 6.338 114 14.156 114h85.688c7.818 0 14.156-6.338 14.156-14.156V14.156Zm-12 9.02C102 17.004 96.996 12 90.824 12H23.176C17.004 12 12 17.004 12 23.176v67.648C12 96.996 17.004 102 23.176 102h67.648C96.996 102 102 96.996 102 90.824V23.176Z" style="fill:#635091" transform="translate(8 8) scale(.78948)"/>
  <path d="M93 31.281C93 25.603 88.397 21 82.719 21H31.281C25.603 21 21 25.603 21 31.281v51.438C21 88.397 25.603 93 31.281 93h51.438C88.397 93 93 88.397 93 82.719V31.281Z" style="fill:#392b55" transform="translate(.692 .692) scale(.91768)"/>
  <path d="M82.07 35.948c-2.063 1.263-4.392 2.101-6.974 2.532 0 0-3.588-4.694-11.3-2.766-9.195 2.299-7.325 13.014-7.325 13.014-9.152-.509-16.703-4.423-22.739-11.555-2.67 5.312-1.763 10.207 3.36 14.611-1.607.186-3.214-.121-4.821-1.364-.084 5.528 2.973 9.084 8.474 11.104-1.173.29-2.837.335-4.675.293 2.119 5.003 5.6 7.191 10.13 7.208-4.37 3.863-9.699 5.396-15.887 4.844 0 0 17.33 12.523 37.116-2.545C79.681 59.27 78.007 45.983 78.007 45.983c2.322-1.534 4.189-3.465 5.68-5.726-2.539 1.016-4.63 1.533-6.234 1.51 0 0 2.951-1.294 4.617-5.819Z" style="fill:#e5ad66" transform="translate(-.379 -.379) scale(.93647)"/>
</svg>

<?xml version="1.0" encoding="UTF-8" standalone="no"?>
<!DOCTYPE svg PUBLIC "-//W3C//DTD SVG 1.1//EN" "http://www.w3.org/Graphics/SVG/1.1/DTD/svg11.dtd">
<svg width="100%" height="100%" viewBox="0 0 106 106" version="1.1" xmlns="http://www.w3.org/2000/svg" xmlns:xlink="http://www.w3.org/1999/xlink" xml:space="preserve" xmlns:serif="http://www.serif.com/" style="fill-rule:evenodd;clip-rule:evenodd;stroke-linejoin:round;stroke-miterlimit:2;">
    <g id="ICONS" transform="matrix(1.15385,0,0,1.15385,1.07692,1.07692)">
        <g transform="matrix(0.684211,0,0,0.684211,6,6)">
            <path d="M114,14.156C114,6.338 107.662,0 99.844,0L14.156,0C6.338,0 0,6.338 0,14.156L0,99.844C0,107.662 6.338,114 14.156,114L99.844,114C107.662,114 114,107.662 114,99.844L114,14.156ZM102,23.176C102,17.004 96.996,12 90.824,12L23.176,12C17.004,12 12,17.004 12,23.176L12,90.824C12,96.996 17.004,102 23.176,102L90.824,102C96.996,102 102,96.996 102,90.824L102,23.176Z" style="fill:#635091;"/>
        </g>
        <g transform="matrix(0.795322,0,0,0.795322,-0.333333,-0.333333)">
            <path d="M93,31.281C93,25.603 88.397,21 82.719,21L31.281,21C25.603,21 21,25.603 21,31.281L21,82.719C21,88.397 25.603,93 31.281,93L82.719,93C88.397,93 93,88.397 93,82.719L93,31.281Z" style="fill:#392b55;"/>
        </g>
        <g transform="matrix(0.811605,0,0,0.811605,-1.26146,-1.26154)">
            <path d="M82.07,35.948C80.007,37.211 77.678,38.049 75.096,38.48C75.096,38.48 71.508,33.786 63.796,35.714C54.601,38.013 56.471,48.728 56.471,48.728C47.319,48.219 39.768,44.305 33.732,37.173C31.062,42.485 31.969,47.38 37.092,51.784C35.485,51.97 33.878,51.663 32.271,50.42C32.187,55.948 35.244,59.504 40.745,61.524C39.572,61.814 37.908,61.859 36.07,61.817C38.189,66.82 41.67,69.008 46.2,69.025C41.83,72.888 36.501,74.421 30.313,73.869C30.313,73.869 47.643,86.392 67.429,71.324C79.681,59.27 78.007,45.983 78.007,45.983C80.329,44.449 82.196,42.518 83.687,40.257C81.148,41.273 79.057,41.79 77.453,41.767C77.453,41.767 80.404,40.473 82.07,35.948Z" style="fill:#e5ad66;"/>
        </g>
    </g>
</svg>
